static/img/site/mongodb.svg

<svg width="32" height="32" viewBox="0 0 32 32" fill="none" xmlns="http://www.w3.org/2000/svg">
<g clip-path="url(#clip0_1_3374)">
<path d="M16 32.0012C24.8366 32.0012 32 24.8378 32 16.0012C32 7.16466 24.8366 0.0012207 16 0.0012207C7.16344 0.0012207 0 7.16466 0 16.0012C0 24.8378 7.16344 32.0012 16 32.0012Z" fill="#13AA52"/>
<path d="M20.2807 14.0489C19.2701 9.58859 16.8817 8.12203 16.6245 7.56172C16.3432 7.16641 16.0582 6.46328 16.0582 6.46328C16.0535 6.45141 16.046 6.43047 16.0373 6.41016C16.0082 6.80547 15.9932 6.95797 15.6195 7.35672C15.0407 7.80922 12.0714 10.3008 11.8298 15.3683C11.6045 20.0945 15.2439 22.9108 15.736 23.2698L15.792 23.3095V23.3061C15.7951 23.3298 15.9482 24.4311 16.0557 25.598H16.4414C16.5318 24.7731 16.6675 23.9539 16.8476 23.1439L16.8789 23.1236C17.099 22.9657 17.3089 22.794 17.5073 22.6095L17.5298 22.5892C18.576 21.6227 20.457 19.387 20.4385 15.8227C20.4346 15.2281 20.3819 14.6348 20.2807 14.0489ZM16.0148 20.6014C16.0148 20.6014 16.0148 13.9727 16.2335 13.9739C16.4042 13.9739 16.6251 22.5242 16.6251 22.5242C16.3214 22.4877 16.0148 21.117 16.0148 20.6014Z" fill="white"/>
</g>
<defs>
<clipPath id="clip0_1_3374">
<rect width="32" height="32" fill="white"/>
</clipPath>
</defs>
</svg>

<svg xmlns="http://www.w3.org/2000/svg" width="32" height="32" fill="none" viewBox="0 0 32 32"><g clip-path="url(#a)"><path fill="#13aa52" d="M16 32.001c8.837 0 16-7.163 16-16s-7.163-16-16-16-16 7.164-16 16 7.163 16 16 16"/><path fill="#fff" d="M20.28 14.049c-1.01-4.46-3.398-5.927-3.655-6.487-.282-.396-.567-1.099-.567-1.099l-.02-.053c-.03.395-.045.548-.418.947-.58.452-3.549 2.944-3.79 8.011-.226 4.727 3.414 7.543 3.906 7.902l.056.04v-.004c.003.024.156 1.125.264 2.292h.385a23 23 0 0 1 .407-2.454l.03-.02q.33-.237.63-.514l.022-.02a9.07 9.07 0 0 0 2.909-6.767 11 11 0 0 0-.158-1.774M16.016 20.6s0-6.628.218-6.627c.171 0 .392 8.55.392 8.55-.304-.036-.61-1.407-.61-1.923"/></g><defs><clipPath id="a"><path fill="#fff" d="M0 0h32v32H0z"/></clipPath></defs></svg>
